X:213 
T:Poor old horse 
C:William Cannell 
C:Traditional
O:Isle of Man
Z:Clague collection
B:Kiaull Vannin #130 
M:2/4 
L:1/8 
Q:180 
K:D 
A2|d2 dd|d2 fd|B2 BB|B2 cd|e2 ef|e2 dB|A2 AA|A2 f2| 
ga ba|f2 aa|ed df|e2 ze|fe dc|Bc dB|A>B AG|F2 z|F2 A2|!fermata!d4|c2 e2|!fermata!d4|| 

